assets/img/icons/twitter.svg

<svg width="32" height="32" viewBox="0 0 32 32" xmlns="http://www.w3.org/2000/svg">
    <title>Twitter</title>
    <path d="M32 6.079c-1.177.522-2.442.875-3.77 1.033 1.355-.812 2.396-2.099 2.886-3.631-1.268.752-2.674 1.298-4.169 1.592-1.197-1.275-2.903-2.073-4.792-2.073-3.626 0-6.565 2.94-6.565 6.565 0 .515.057 1.016.17 1.497-5.457-.275-10.294-2.888-13.532-6.86-.565.97-.889 2.098-.889 3.301 0 2.277 1.159 4.287 2.92 5.464-1.076-.034-2.088-.329-2.973-.821l-.001.082c0 3.181 2.263 5.835 5.267 6.438-.551.15-1.131.23-1.73.23-.423 0-.834-.041-1.235-.117.835 2.607 3.26 4.506 6.133 4.559-2.247 1.76-5.078 2.81-8.154 2.81-.53 0-1.052-.031-1.566-.092 2.905 1.863 6.356 2.95 10.064 2.95 12.076 0 18.679-10.004 18.679-18.68 0-.284-.006-.567-.019-.849 1.283-.926 2.396-2.082 3.276-3.398" />
</svg>

<?xml version="1.0" encoding="UTF-8" standalone="no"?>
<svg width="32px" height="32px" viewBox="0 0 32 32" version="1.1" xmlns="http://www.w3.org/2000/svg" xmlns:xlink="http://www.w3.org/1999/xlink" xmlns:sketch="http://www.bohemiancoding.com/sketch/ns">
    <!-- Generator: Sketch 3.3.2 (12043) - http://www.bohemiancoding.com/sketch -->
    <title>Artboard 1</title>
    <desc>Created with Sketch.</desc>
    <defs></defs>
    <path d="M32,6.079 C30.823,6.601 29.558,6.954 28.23,7.112 C29.585,6.3 30.626,5.013 31.116,3.481 C29.848,4.233 28.442,4.779 26.947,5.073 C25.75,3.798 24.044,3 22.155,3 C18.529,3 15.59,5.94 15.59,9.565 C15.59,10.08 15.647,10.581 15.76,11.062 C10.303,10.787 5.466,8.174 2.228,4.202 C1.663,5.172 1.339,6.3 1.339,7.503 C1.339,9.78 2.498,11.79 4.259,12.967 C3.183,12.933 2.171,12.638 1.286,12.146 C1.285,12.173 1.285,12.201 1.285,12.228 C1.285,15.409 3.548,18.063 6.552,18.666 C6.001,18.816 5.421,18.896 4.822,18.896 C4.399,18.896 3.988,18.855 3.587,18.779 C4.422,21.386 6.847,23.285 9.72,23.338 C7.473,25.098 4.642,26.148 1.566,26.148 C1.036,26.148 0.514,26.117 0,26.056 C2.905,27.919 6.356,29.006 10.064,29.006 C22.14,29.006 28.743,19.002 28.743,10.326 C28.743,10.042 28.737,9.759 28.724,9.477 C30.007,8.551 31.12,7.395 32,6.079" sketch:type="MSShapeGroup"></path>
</svg>
